X:325
T:Honorable Captain Maitland
R:Strathspey
C:Nathaniel Gow
B:The Athole Collection
M:C
L:1/8
K:G
D|G<G B>G c>AF>D|G<G B>G d>GB>G|c<aB<g A>DF>D|
G<G B>A G2G:|
B/c/|d<gB<g A<DF>D|d<gB<g d<gB<g|c<aB<g A>DF>D|
G>AB>A G2 GB/c/|d<gB<g A>DF>D|d<gB<g d<gB<g|
c<aB<g A>DF>D|G<G B>A G2G||

